X:1
T: Miss Loudon
C:Robert Lowe
R:Reel
Q: 232
K:Bb
M:4/4
L:1/8
|:F|B2 bf df Bd|eg cB Ac FA|B2 dB GB Eg|fd ec BA GF|
B2 bf df Bd|eg cB Ac FA|B2 dB GB Eg|fd ec B3F|
DB, DF BF dB|ge dc Ac FE|DB, DF Bd fb|ge dA B2 BF|
DE FG AB cd|eg cB Ac FA|Bc de fg ab|ge cA B2 B:|
